src/assets/images/electrobyt.svg

<svg width="209" height="34" viewBox="0 0 209 34" fill="none" xmlns="http://www.w3.org/2000/svg">
<g style="mix-blend-mode:luminosity" clip-path="url(#clip0)">
<path d="M14.641 15.4028H29.2849V18.6676H14.641V15.4028ZM28.4844 7.90382L15.4388 0.220743C14.9427 -0.0755342 14.3338 -0.0755342 13.8405 0.220743L0.80055 7.90382C0.304435 8.19435 0 8.73512 0 9.31617V13.5935H3.19938V10.2597L14.641 3.51719L26.0855 10.2597V13.5935H29.2821V9.31617C29.2821 8.73512 28.9777 8.19435 28.4844 7.90382ZM26.0855 23.7388L14.641 30.4813L3.19938 23.7388V20.7099H0V24.6823C0 25.2663 0.304435 25.8042 0.80055 26.0947L13.8405 33.7806C14.0886 33.9273 14.362 33.9993 14.641 33.9993C14.9173 33.9993 15.1935 33.9273 15.4416 33.7806L28.4872 26.0947C28.9805 25.8042 29.2849 25.2663 29.2849 24.6823V20.7099H26.0855V23.7388Z" fill="#F05523"/>
<path d="M50.8183 1.29772C47.9093 1.29772 44.8311 2.93156 44.1546 6.5473H47.1285C47.743 4.91633 49.096 4.11955 50.8183 4.11955C52.9099 4.09941 54.5505 5.41972 54.838 7.53393H49.5865V10.1256H54.776C54.4293 12.1996 52.7831 13.4969 50.714 13.4969C48.9494 13.4969 47.4555 12.5965 46.9622 10.839H43.9883C44.6253 14.6935 47.7204 16.3014 50.714 16.3014C54.4885 16.3014 58.0543 13.6867 58.0543 8.81109C58.0543 3.95846 54.5928 1.27758 50.8183 1.29772Z" fill="#F05523"/>
<path d="M64.0515 11.8249C63.8654 13.4357 63.5187 13.9995 61.7936 13.8125L61.7344 16.0706C65.5088 16.6142 66.7604 15.7398 67.1071 11.9284L67.8062 4.28851H71.7215V16.1367H74.78V1.48682C71.8456 1.48682 68.0909 1.48682 65.117 1.48682L64.0515 11.8249Z" fill="#F05523"/>
<path d="M84.2806 9.94079H89.6139V7.19951H84.2806V4.22523H89.9831V1.48682H81.1855V16.1367H90.1466V13.289H84.2806V9.94079Z" fill="#F05523"/>
<path d="M106.097 4.9993C106.404 3.88898 107.019 3.53517 108.169 3.63873V1.50725C105.012 0.837033 103.754 2.26089 103.267 4.07883C102.875 5.73568 102.59 6.846 101.829 7.26309C101.26 7.55649 100.234 7.53636 99.3486 7.53636V1.48712H96.293V16.137H99.3458V10.2546C99.9828 10.2546 101.048 10.2546 101.604 10.1079L105.212 16.137H108.679V15.6739L104.287 8.89405C105.169 7.99372 105.663 6.67629 106.097 4.9993Z" fill="#F05523"/>
<path d="M111.918 4.20509H115.754V16.1367H118.728V4.20509H122.545V1.48682H111.918V4.20509Z" fill="#F05523"/>
<path d="M132.938 1.46677C130.886 1.46677 128.859 1.44376 126.807 1.46677V16.1138H129.882V11.9688H132.938C136.222 11.9688 138.045 9.52379 138.045 6.79976C138.043 4.03834 136.281 1.46677 132.938 1.46677ZM132.938 9.28792H129.82V4.20518C130.866 4.20518 131.892 4.18504 132.938 4.20518C134.293 4.20518 135.114 5.35577 135.114 6.71635C135.114 8.12007 134.248 9.28792 132.938 9.28792Z" fill="#F05523"/>
<path d="M149.159 1.25391C145.342 1.25391 141.799 3.8715 141.799 8.81042C141.799 13.7465 145.26 16.3842 149.097 16.3842C153.443 16.3842 156.46 13.2661 156.46 8.81042C156.457 3.88876 152.911 1.25391 149.159 1.25391ZM149.139 13.5192C146.842 13.5192 144.891 12.0148 144.891 8.8133C144.891 5.71245 146.901 4.14765 149.159 4.14765C151.394 4.14765 153.404 5.69519 153.404 8.8133C153.404 12.0119 151.372 13.5192 149.139 13.5192Z" fill="#F05523"/>
<path d="M167.449 6.92624H164.332V4.22523H171.37V1.48682H161.318C161.318 6.36245 161.318 11.2553 161.318 16.1367C163.351 16.1367 165.403 16.1367 167.452 16.1367C170.838 16.1367 172.537 13.9995 172.537 11.4251C172.532 8.89375 170.874 6.92624 167.449 6.92624ZM167.432 13.3897C166.423 13.3897 165.335 13.3897 164.332 13.3897V9.54384H167.432C168.825 9.54384 169.541 10.424 169.541 11.4452C169.541 12.4491 168.845 13.3897 167.432 13.3897Z" fill="#F05523"/>
<path d="M193.814 1.48682H190.756V16.1367H193.814V1.48682Z" fill="#F05523"/>
<path d="M183.579 6.06647H180.503V1.8438C180.503 1.73737 180.503 1.6108 180.503 1.48999H177.51V16.137H183.579C186.598 16.137 188.36 14.1034 188.644 11.7389C188.977 8.93432 187.19 6.06647 183.579 6.06647ZM185.715 11.3822C185.572 12.7658 184.647 13.39 183.069 13.39C182.209 13.39 181.346 13.3699 180.503 13.3699V8.83077H183.274C183.376 8.83077 183.48 8.83077 183.579 8.83077C185.016 8.83077 185.834 10.0648 185.715 11.3822Z" fill="#F05523"/>
<path d="M198.383 1.48682V4.20509H202.211V16.1367H205.187V4.20509H209.001V1.48682H198.383Z" fill="#F05523"/>
<path d="M47.2507 25.6379C48.2711 25.6379 49.3535 26.1988 49.5847 27.4759H48.5361C48.3134 26.892 47.8567 26.636 47.2479 26.636C46.3515 26.636 45.751 27.3005 45.751 28.2813C45.751 29.1673 46.3374 29.9037 47.2394 29.9037C47.868 29.9037 48.381 29.6017 48.5558 28.9746H49.596C49.3789 30.338 48.3021 30.9076 47.2479 30.9076C45.9174 30.9076 44.6602 29.9929 44.6602 28.2813C44.663 26.5583 45.9202 25.6149 47.2507 25.6379Z" fill="#F05523"/>
<path d="M54.2695 26.656H52.2597V27.703H54.1399V28.6695H52.2597V29.8488H54.3259V30.8527H51.166V25.6895H54.2667V26.656H54.2695Z" fill="#F05523"/>
<path d="M55.5684 26.6473V25.6895H59.3118V26.6473H57.9672V30.8527H56.9186V26.6473H55.5684Z" fill="#F05523"/>
<path d="M61.8082 27.3032H62.8934C64.0576 27.3032 64.6946 28.1517 64.6946 29.0664C64.6946 29.9898 64.0576 30.8527 62.8934 30.8527H60.7539V25.6895H61.811V27.3032H61.8082ZM61.8082 28.2783V29.8805C62.1633 29.8805 62.5298 29.8949 62.8934 29.8805C63.3698 29.8805 63.6601 29.5037 63.6517 29.0693C63.6432 28.6407 63.3613 28.2812 62.8934 28.2812H61.8082V28.2783Z" fill="#F05523"/>
<path d="M73.1282 25.6753H73.5172V30.853H72.432V28.057L71.1607 29.6794H71.0226L69.7513 28.057V30.853H68.666V25.6753H69.0635L71.0958 28.1318L73.1282 25.6753Z" fill="#F05523"/>
<path d="M76.2997 29.9955L75.9107 30.8527H74.7832V30.706L77.1116 25.6462H77.6105L79.9248 30.706V30.8527H78.8057L78.4082 29.9955H76.2997ZM76.6549 29.0664H78.0587L77.3568 27.3635L76.6549 29.0664Z" fill="#F05523"/>
<path d="M82.2701 26.6847C82.2701 28.0856 82.2701 29.4519 82.2701 30.8527C81.915 30.8527 81.5542 30.8527 81.1934 30.8527C81.1934 29.1355 81.1934 27.4067 81.1934 25.6895C82.2053 25.6895 83.2596 25.6895 84.2715 25.6895C84.2715 26.0519 84.2715 26.3252 84.2715 26.6847H82.2701Z" fill="#F05523"/>
<path d="M86.081 29.9955L85.692 30.8527H84.5645V30.706L86.8928 25.6462H87.3918L89.706 30.706V30.8527H88.5869L88.1895 29.9955H86.081ZM86.4333 29.0664H87.8343L87.1324 27.3635L86.4333 29.0664Z" fill="#F05523"/>
<path d="M90.8069 26.9583C90.7703 26.0061 91.5595 25.5862 92.4334 25.5862C93.482 25.5862 94.1106 26.2276 94.1106 27.0474C94.1106 27.4674 93.8794 27.8356 93.5327 28.0513C94.0824 28.3102 94.3868 28.7158 94.3868 29.3573C94.3868 30.3007 93.6793 30.9566 92.4362 30.9566C91.3594 30.9566 90.6152 30.4043 90.6152 29.2221H91.5905C91.5905 29.7369 91.9655 30.0419 92.4362 30.0419C92.9633 30.0419 93.2959 29.7254 93.2959 29.2882C93.2959 28.874 92.9492 28.5518 92.4362 28.5518H92.0613V27.6659H92.4306C92.8196 27.6659 93.1014 27.4012 93.1014 27.0676C93.1014 26.6764 92.7829 26.4635 92.4362 26.4635C92.1036 26.4635 91.7653 26.6188 91.7653 26.9583H90.8069Z" fill="#F05523"/>
<path d="M96.3164 30.8672H95.9922V25.6895H97.0774V28.6178L99.9188 25.6665H100.26V30.8528H99.1831V27.9015L96.3164 30.8672Z" fill="#F05523"/>
<path d="M105.16 30.8527V28.6695H103.223V30.8527H102.146V25.6895H103.223V27.6598H105.16V25.6895H106.245V30.8527H105.16Z" fill="#F05523"/>
<path d="M110.429 30.9419C109.079 30.9419 107.855 30.0128 107.855 28.2725C107.855 26.5322 109.107 25.6089 110.452 25.6089C111.774 25.6089 113.025 26.538 113.025 28.2725C113.025 29.8431 111.963 30.9419 110.429 30.9419ZM110.446 29.9294C111.232 29.9294 111.948 29.3972 111.948 28.2696C111.948 27.1708 111.241 26.6243 110.452 26.6243C109.657 26.6243 108.949 27.1766 108.949 28.2696C108.949 29.4001 109.634 29.9294 110.446 29.9294Z" fill="#F05523"/>
<path d="M117.877 28.1748C118.348 28.3733 118.598 28.7933 118.598 29.3254C118.598 30.2315 118.007 30.8528 116.995 30.8528H114.646V25.6953H116.794C117.719 25.6953 118.384 26.2562 118.384 27.2227C118.381 27.5995 118.193 27.9764 117.877 28.1748ZM115.72 26.6417V27.8153H116.71C117.079 27.8153 117.31 27.6082 117.316 27.263C117.324 26.8862 117.085 26.6445 116.71 26.6445H115.72V26.6417ZM115.72 28.7127V29.8921H116.921C117.291 29.8921 117.508 29.6706 117.527 29.3254C117.533 29.1183 117.454 28.9285 117.302 28.8163C117.178 28.7271 117.034 28.7127 116.868 28.7127H115.72Z" fill="#F05523"/>
<path d="M123.774 27.6081H124.873C126.079 27.6081 126.666 28.3013 126.666 29.193C126.666 30.0991 126.065 30.8527 124.873 30.8527C124.151 30.8527 123.427 30.8527 122.711 30.8527C122.711 29.1355 122.711 27.4067 122.711 25.6895H126.254V26.656H123.774V27.6081ZM123.774 28.5285V29.8862C124.129 29.8862 124.512 29.8862 124.865 29.8862C125.363 29.8862 125.609 29.5554 125.609 29.2016C125.609 28.8392 125.355 28.5314 124.865 28.5314H123.774V28.5285Z" fill="#F05523"/>
<path d="M129.273 25.8131V27.3032H130.358C131.63 27.3032 132.258 28.3128 132.143 29.3023C132.041 30.1365 131.421 30.8527 130.358 30.8527H128.219V25.6895H129.273C129.273 25.7326 129.273 25.7786 129.273 25.8131ZM130.251 28.2783H129.276V29.8805C129.572 29.8805 129.876 29.8862 130.181 29.8862C130.736 29.8862 131.063 29.6648 131.114 29.1786C131.156 28.7126 130.868 28.2783 130.361 28.2783C130.322 28.2783 130.285 28.2783 130.251 28.2783ZM133.964 30.8527H132.887V25.6895H133.964V30.8527Z" fill="#F05523"/>
<path d="M135.404 26.6473V25.6895H139.148V26.6473H137.803V30.8527H136.755V26.6473H135.404Z" fill="#F05523"/>
<path d="M142.771 30.9419C141.421 30.9419 140.197 30.0128 140.197 28.2725C140.197 26.5322 141.449 25.6089 142.793 25.6089C144.115 25.6089 145.367 26.538 145.367 28.2725C145.364 29.8431 144.302 30.9419 142.771 30.9419ZM142.785 29.9294C143.574 29.9294 144.287 29.3972 144.287 28.2696C144.287 27.1708 143.58 26.6243 142.791 26.6243C141.996 26.6243 141.288 27.1766 141.288 28.2696C141.288 29.4001 141.976 29.9294 142.785 29.9294Z" fill="#F05523"/>
<path d="M150.215 28.1748C150.685 28.3733 150.936 28.7933 150.936 29.3254C150.936 30.2315 150.344 30.8528 149.332 30.8528H146.984V25.6953H149.132C150.057 25.6953 150.722 26.2562 150.722 27.2227C150.719 27.5995 150.53 27.9764 150.215 28.1748ZM148.058 26.6417V27.8153H149.048C149.417 27.8153 149.648 27.6082 149.654 27.263C149.662 26.8862 149.423 26.6445 149.048 26.6445H148.058V26.6417ZM148.058 28.7127V29.8921H149.259C149.628 29.8921 149.845 29.6706 149.865 29.3254C149.874 29.1183 149.792 28.9285 149.643 28.8163C149.518 28.7271 149.375 28.7127 149.208 28.7127H148.058Z" fill="#F05523"/>
<path d="M154.847 30.9419C153.494 30.9419 152.273 30.0128 152.273 28.2725C152.273 26.5322 153.525 25.6089 154.87 25.6089C156.192 25.6089 157.443 26.538 157.443 28.2725C157.443 29.8431 156.38 30.9419 154.847 30.9419ZM154.861 29.9294C155.648 29.9294 156.364 29.3972 156.364 28.2696C156.364 27.1708 155.656 26.6243 154.867 26.6243C154.072 26.6243 153.364 27.1766 153.364 28.2696C153.367 29.4001 154.052 29.9294 154.861 29.9294Z" fill="#F05523"/>
<path d="M159.379 30.8672H159.055V25.6895H160.14V28.6178L162.981 25.6665H163.322V30.8528H162.246V27.9016L159.379 30.8672ZM160.123 24.1103C160.16 24.8697 160.63 25.3501 161.403 25.3501C162.206 25.3501 162.646 24.864 162.691 24.1103C162.482 24.0873 162.184 24.0586 161.967 24.0442C161.91 24.3836 161.707 24.5102 161.394 24.5102C161.062 24.5102 160.887 24.3491 160.853 24.0442L160.123 24.1103Z" fill="#F05523"/>
<path d="M167.248 26.6473V25.6895H170.991V26.6473H169.647V30.8527H168.598V26.6473H167.248Z" fill="#F05523"/>
<path d="M175.533 26.656H173.523V27.703H175.404V28.6695H173.523V29.8488H175.59V30.8527H172.43V25.6895H175.53V26.656H175.533Z" fill="#F05523"/>
<path d="M179.148 27.4671L179.638 26.4949L180.137 25.6895H181.307V25.8505L179.782 28.123L181.482 30.6974V30.8527H180.346L179.689 29.8575L179.148 28.891H179.111L178.556 29.8862L177.927 30.8527H176.777V30.6974L178.483 28.123L176.949 25.8505V25.6895H178.128L178.655 26.538L179.117 27.4671H179.148Z" fill="#F05523"/>
<path d="M185.877 30.8527V28.6695H183.94V30.8527H182.863V25.6895H183.94V27.6598H185.877V25.6895H186.962V30.8527H185.877Z" fill="#F05523"/>
<path d="M189.178 30.8672H188.854V25.6895H189.939V28.6178L192.78 25.6665H193.118V30.8528H192.042V27.9015L189.178 30.8672Z" fill="#F05523"/>
<path d="M196.087 27.8212C196.397 27.8212 196.757 27.8298 196.96 27.7263C197.228 27.5796 197.33 27.1884 197.465 26.6044C197.64 25.963 198.079 25.4596 199.193 25.6983V26.452C198.787 26.4146 198.57 26.5412 198.463 26.9324C198.311 27.522 198.139 27.988 197.826 28.3044L199.373 30.6948V30.8559H198.153L196.881 28.7302C196.687 28.7819 196.309 28.7819 196.087 28.7819V30.8559H195.01V25.6897H196.087V27.8212Z" fill="#F05523"/>
<path d="M201.143 30.8672H200.818V25.6895H201.904V28.6178L204.745 25.6665H205.086V30.8528H204.009V27.9015L201.143 30.8672Z" fill="#F05523"/>
</g>
<defs>
<clipPath id="clip0">
<rect width="209" height="34" fill="white"/>
</clipPath>
</defs>
</svg>

<svg width="209" height="34" fill="none" xmlns="http://www.w3.org/2000/svg"><g style="mix-blend-mode:luminosity" clip-path="url(#clip0)" fill="#F05523"><path d="M14.641 15.403h14.644v3.265H14.64v-3.265zm13.843-7.5L15.44.222a1.548 1.548 0 00-1.598 0L.8 7.904c-.496.29-.8.831-.8 1.412v4.277h3.2V10.26l11.44-6.743 11.444 6.743v3.334h3.197V9.316a1.64 1.64 0 00-.798-1.412zM26.085 23.74l-11.444 6.74-11.442-6.74v-3.03H0v3.973c0 .584.304 1.122.8 1.413l13.04 7.686a1.57 1.57 0 001.601 0l13.046-7.686c.494-.29.798-.829.798-1.413V20.71h-3.2v3.029zM50.818 1.298c-2.909 0-5.987 1.634-6.663 5.25h2.974c.614-1.632 1.967-2.428 3.69-2.428 2.09-.02 3.731 1.3 4.019 3.414h-5.252v2.592h5.19c-.347 2.074-1.993 3.37-4.062 3.37-1.765 0-3.258-.9-3.752-2.657h-2.974c.637 3.854 3.732 5.462 6.726 5.462 3.775 0 7.34-2.614 7.34-7.49 0-4.853-3.461-7.533-7.236-7.513zm13.234 10.527c-.187 1.61-.533 2.175-2.258 1.988l-.06 2.258c3.775.543 5.026-.331 5.373-4.143l.7-7.64h3.915v11.849h3.058V1.487h-9.663l-1.066 10.338zM84.28 9.94h5.334V7.2H84.28V4.225h5.702V1.487h-8.797v14.65h8.96v-2.848H84.28V9.941zM106.097 5c.307-1.111.922-1.465 2.072-1.361V1.507c-3.157-.67-4.415.754-4.902 2.572-.392 1.657-.677 2.767-1.438 3.184-.569.293-1.595.273-2.48.273V1.487h-3.056v14.65h3.053v-5.882c.637 0 1.702 0 2.258-.147l3.608 6.029h3.467v-.463l-4.392-6.78c.882-.9 1.376-2.218 1.81-3.895zm5.821-.795h3.836v11.932h2.974V4.205h3.817V1.487h-10.627v2.718zm21.02-2.738c-2.052 0-4.079-.023-6.131 0v14.647h3.075v-4.145h3.056c3.284 0 5.107-2.445 5.107-5.17-.002-2.76-1.764-5.332-5.107-5.332zm0 7.82h-3.118V4.206c1.046 0 2.072-.02 3.118 0 1.355 0 2.176 1.15 2.176 2.511 0 1.404-.866 2.572-2.176 2.572zm16.221-8.033c-3.817 0-7.36 2.617-7.36 7.556 0 4.936 3.461 7.574 7.298 7.574 4.346 0 7.363-3.118 7.363-7.574-.003-4.921-3.549-7.556-7.301-7.556zm-.02 12.265c-2.297 0-4.248-1.504-4.248-4.706 0-3.1 2.01-4.665 4.268-4.665 2.235 0 4.245 1.547 4.245 4.665 0 3.199-2.032 4.706-4.265 4.706zm18.31-6.593h-3.117v-2.7h7.038v-2.74h-10.052v14.65h6.134c3.386 0 5.085-2.136 5.085-4.71-.005-2.532-1.663-4.5-5.088-4.5zm-.017 6.464h-3.1V9.544h3.1c1.393 0 2.109.88 2.109 1.901 0 1.004-.696 1.945-2.109 1.945zm26.382-11.903h-3.058v14.65h3.058V1.487zm-10.235 4.579h-3.076V1.49h-2.993v14.647h6.069c3.019 0 4.781-2.034 5.065-4.398.333-2.805-1.454-5.673-5.065-5.673zm2.136 5.316c-.143 1.384-1.068 2.008-2.646 2.008-.86 0-1.723-.02-2.566-.02V8.83h3.076c1.437 0 2.255 1.235 2.136 2.552zm12.668-9.895v2.718h3.828v11.932h2.976V4.205h3.814V1.487h-10.618zM47.25 25.638c1.021 0 2.103.56 2.335 1.838h-1.049c-.223-.584-.68-.84-1.288-.84-.896 0-1.497.665-1.497 1.645 0 .886.586 1.623 1.488 1.623.629 0 1.142-.302 1.317-.93h1.04c-.217 1.364-1.294 1.934-2.348 1.934-1.33 0-2.588-.915-2.588-2.627.003-1.723 1.26-2.666 2.59-2.643zm7.02 1.018h-2.01v1.047h1.88v.966h-1.88v1.18h2.066v1.004h-3.16v-5.164h3.1v.967h.004zm1.298-.009v-.957h3.744v.957h-1.345v4.206H56.92v-4.206h-1.35zm6.24.656h1.085c1.165 0 1.802.849 1.802 1.763 0 .924-.637 1.787-1.802 1.787h-2.14v-5.164h1.058v1.614h-.003zm0 .975v1.603c.355 0 .722.014 1.085 0 .477 0 .767-.377.759-.812-.009-.428-.29-.788-.759-.788h-1.085v-.003zm11.32-2.603h.39v5.178h-1.086v-2.796l-1.271 1.622h-.138l-1.272-1.622v2.796h-1.085v-5.178h.398l2.032 2.457 2.032-2.457zm3.172 4.32l-.39.858h-1.127v-.147l2.329-5.06h.499l2.314 5.06v.147h-1.12l-.397-.858H76.3zm.355-.929h1.404l-.702-1.703-.702 1.703zm5.615-2.381v4.168h-1.077v-5.164h3.079v.996H82.27zm3.811 3.31l-.389.858h-1.127v-.147l2.328-5.06h.499l2.314 5.06v.147h-1.12l-.397-.858h-2.108zm.352-.929h1.401l-.702-1.703-.699 1.703zm4.374-2.108c-.037-.952.752-1.372 1.626-1.372 1.049 0 1.678.642 1.678 1.461 0 .42-.232.789-.578 1.004.55.26.854.665.854 1.306 0 .944-.708 1.6-1.95 1.6-1.078 0-1.822-.553-1.822-1.735h.976c0 .515.375.82.845.82.527 0 .86-.317.86-.754 0-.414-.347-.736-.86-.736h-.375v-.886h.37c.389 0 .67-.265.67-.598 0-.392-.318-.605-.665-.605-.332 0-.67.156-.67.495h-.96zm5.509 3.909h-.324V25.69h1.085v2.929l2.842-2.951h.341v5.186h-1.077V27.9l-2.867 2.966zm8.844-.014v-2.184h-1.937v2.184h-1.077v-5.164h1.077v1.97h1.937v-1.97h1.085v5.164h-1.085zm5.269.089c-1.35 0-2.574-.93-2.574-2.67 0-1.74 1.252-2.663 2.597-2.663 1.322 0 2.573.929 2.573 2.663 0 1.571-1.062 2.67-2.596 2.67zm.017-1.013c.786 0 1.502-.532 1.502-1.66 0-1.098-.707-1.645-1.496-1.645-.795 0-1.503.553-1.503 1.646 0 1.13.685 1.66 1.497 1.66zm7.431-1.754c.471.198.721.618.721 1.15 0 .907-.591 1.528-1.603 1.528h-2.349v-5.158h2.148c.925 0 1.59.561 1.59 1.528-.003.377-.191.753-.507.952zm-2.157-1.533v1.173h.99c.369 0 .6-.207.606-.552.008-.377-.231-.619-.606-.619h-.99v-.002zm0 2.07v1.18h1.201c.37 0 .587-.221.606-.567a.599.599 0 00-.225-.509c-.124-.089-.268-.103-.434-.103h-1.148zm8.054-1.104h1.099c1.206 0 1.793.693 1.793 1.585 0 .906-.601 1.66-1.793 1.66h-2.162v-5.164h3.543v.967h-2.48v.952zm0 .92v1.358h1.091c.498 0 .744-.33.744-.684 0-.363-.254-.67-.744-.67h-1.091v-.003zm5.499-2.715v1.49h1.085c1.272 0 1.9 1.01 1.785 2-.102.834-.722 1.55-1.785 1.55h-2.139v-5.164h1.054v.124zm.978 2.465h-.975v1.603c.296 0 .6.005.905.005.555 0 .882-.221.933-.707.042-.466-.246-.9-.753-.9h-.11zm3.713 2.575h-1.077v-5.164h1.077v5.164zm1.44-4.206v-.957h3.744v.957h-1.345v4.206h-1.048v-4.206h-1.351zm7.367 4.295c-1.35 0-2.574-.93-2.574-2.67 0-1.74 1.252-2.663 2.596-2.663 1.322 0 2.574.929 2.574 2.663-.003 1.571-1.065 2.67-2.596 2.67zm.014-1.013c.789 0 1.502-.532 1.502-1.66 0-1.098-.707-1.645-1.496-1.645-.795 0-1.503.553-1.503 1.646 0 1.13.688 1.66 1.497 1.66zm7.43-1.754c.47.198.721.618.721 1.15 0 .907-.592 1.528-1.604 1.528h-2.348v-5.158h2.148c.925 0 1.59.561 1.59 1.528-.003.377-.192.753-.507.952zm-2.157-1.533v1.173h.99c.369 0 .6-.207.606-.552.008-.377-.231-.619-.606-.619h-.99v-.002zm0 2.07v1.18h1.201c.369 0 .586-.221.606-.567a.596.596 0 00-.222-.509c-.125-.089-.268-.103-.435-.103h-1.15zm6.789 2.23c-1.353 0-2.574-.93-2.574-2.67 0-1.74 1.252-2.663 2.597-2.663 1.322 0 2.573.929 2.573 2.663 0 1.571-1.063 2.67-2.596 2.67zm.014-1.013c.787 0 1.503-.532 1.503-1.66 0-1.098-.708-1.645-1.497-1.645-.795 0-1.503.553-1.503 1.646.003 1.13.688 1.66 1.497 1.66zm4.518.938h-.324V25.69h1.085v2.929l2.841-2.951h.341v5.186h-1.076v-2.951l-2.867 2.965zm.744-6.757c.037.76.507 1.24 1.28 1.24.803 0 1.243-.486 1.288-1.24a18.962 18.962 0 00-.724-.066c-.057.34-.26.466-.573.466-.332 0-.507-.16-.541-.466l-.73.066zm7.125 2.537v-.957h3.743v.957h-1.344v4.206h-1.049v-4.206h-1.35zm8.285.009h-2.01v1.047h1.881v.966h-1.881v1.18h2.067v1.004h-3.16v-5.164h3.1v.967h.003zm3.615.811l.49-.972.499-.806h1.17v.162l-1.525 2.272 1.7 2.574v.156h-1.136l-.657-.995-.541-.967h-.037l-.555.995-.629.967h-1.15v-.156l1.706-2.574-1.534-2.273v-.16h1.179l.527.848.462.93h.031zm6.729 3.386v-2.184h-1.937v2.184h-1.077v-5.164h1.077v1.97h1.937v-1.97h1.085v5.164h-1.085zm3.301.014h-.324V25.69h1.085v2.929l2.841-2.951h.338v5.186h-1.076V27.9l-2.864 2.966zm6.909-3.046c.31 0 .67.009.873-.095.268-.146.37-.538.505-1.122.175-.641.614-1.144 1.728-.906v.754c-.406-.037-.623.09-.73.48-.152.59-.324 1.056-.637 1.372l1.547 2.39v.162h-1.22l-1.272-2.126c-.194.052-.572.052-.794.052v2.074h-1.077V25.69h1.077v2.131zm5.056 3.046h-.325V25.69h1.086v2.929l2.841-2.951h.341v5.186h-1.077V27.9l-2.866 2.966z"/></g><defs><clipPath id="clip0"><path fill="#fff" d="M0 0h209v34H0z"/></clipPath></defs></svg>
